!!!OTL: Das mannstolle Maedchen Mir ist ein junges Knaeblein
!!!ARE: Europa, Mitteleuropa, Deutschland
!!!YOR: 6, S. 92
!!    1615 gedruckt; Satz: Melchior Franck
!!!SCT: Q0126C
!!!YEM: Copyright 1995, estate of Helmut Schaffrath.
**kern
*ICvox
*Ivox
*M2/4
*k[f#]
*G:
{8a
=1
8a
8a
8dd
8dd
=2
4cc
8a}
{8cc
=3
8b
8a
8b
8b
=4
4a
8r}
{8a
=5
8b
8dd
8dd
8cc#
=6
4dd}
{8b
8dd
=7
8cc
8b
8a
8g
=8
8b
8a
4g
=9
4.r}
==
!!!AGN: Ballade, Werbung, Betrug
!! Rekonstruktion der Balladenmelodie aus einem mehrstimmigen Satz von
!!    Melchior Franck. Schlusspause ergaenzt.
!!!ONB: ESAC (Essen Associative Code) Database: BALLADE
!!!AMT: simple duple
!!!AIN: vox
!!!EED: Helmut Schaffrath
!!!EEV: 1.0
*-
